Catalina-light/actions/22/media-optical-audio-new.svg

<svg xmlns="http://www.w3.org/2000/svg" width="22" height="22" version="1.1">
<g>
<g>
<g>
<path transform="translate(0 0.04)" d="m11 3c-4.432 0-8 3.568-8 8s3.568 8 8 8 8-3.568 8-8-3.568-8-8-8zm4.3457 5.5c0.049469 0 0.10286 0.0034828 0.1582 0.0097656h0.001953c0.75067 0.063472 1.2819 0.3183 1.5781 0.75781 0.32925 0.4885 0.28336 1.0846 0.22656 1.3965-0.005119 0.028143-0.028471 0.049692-0.056641 0.054688-0.028279 0.005037-0.05583-0.00657-0.070312-0.03125-0.058941-0.10057-0.15804-0.25346-0.30078-0.40625-0.34628-0.37062-0.77778-0.56641-1.2461-0.56641-0.038957-1e-7 -0.079267 0.001237-0.11914 0.0039062v2.7695c0 0.51336-0.38485 0.93491-0.91602 1.002-0.048168 0.006064-0.096417 0.009766-0.14453 0.009766-0.51243 0-0.94396-0.34705-1.002-0.80664-0.03125-0.24756 0.04654-0.49379 0.21875-0.69336 0.1722-0.19957 0.4186-0.32861 0.69336-0.36328 0.15767-0.019916 0.31795-0.005794 0.4668 0.039062v-2.8242c0-0.16222 0.13327-0.35156 0.51172-0.35156zm-4.3457 1.5c0.554 0 1 0.446 1 1s-0.446 1-1 1-1-0.446-1-1 0.446-1 1-1z" fill="#363636" />
</g>
</g>
</g>
</svg>

<?xml version="1.0" encoding="UTF-8" standalone="no"?>
<!-- Created with Inkscape (http://www.inkscape.org/) -->

<svg
   xmlns:dc="http://purl.org/dc/elements/1.1/"
   xmlns:cc="http://creativecommons.org/ns#"
   xmlns:rdf="http://www.w3.org/1999/02/22-rdf-syntax-ns#"
   xmlns:svg="http://www.w3.org/2000/svg"
   xmlns="http://www.w3.org/2000/svg"
   xmlns:sodipodi="http://sodipodi.sourceforge.net/DTD/sodipodi-0.dtd"
   xmlns:inkscape="http://www.inkscape.org/namespaces/inkscape"
   width="22"
   height="22"
   id="svg3869"
   version="1.1"
   inkscape:version="0.91 r13725"
   sodipodi:docname="tools-rip-audio-cd.svg">
  <defs
     id="defs3871">
    <linearGradient
       id="linearGradient4290-48">
      <stop
         id="stop4292-0"
         offset="0"
         style="stop-color:#a5a5a5;stop-opacity:1;" />
      <stop
         id="stop4294-0"
         offset="1"
         style="stop-color:#f5f2f5;stop-opacity:1;" />
    </linearGradient>
    <inkscape:perspective
       id="perspective4146-9"
       inkscape:persp3d-origin="12 : 8 : 1"
       inkscape:vp_z="24 : 12 : 1"
       inkscape:vp_y="0 : 1000 : 0"
       inkscape:vp_x="0 : 12 : 1"
       sodipodi:type="inkscape:persp3d" />
    <inkscape:perspective
       id="perspective4146"
       inkscape:persp3d-origin="12 : 8 : 1"
       inkscape:vp_z="24 : 12 : 1"
       inkscape:vp_y="0 : 1000 : 0"
       inkscape:vp_x="0 : 12 : 1"
       sodipodi:type="inkscape:persp3d" />
    <inkscape:perspective
       sodipodi:type="inkscape:persp3d"
       inkscape:vp_x="0 : 12 : 1"
       inkscape:vp_y="0 : 1000 : 0"
       inkscape:vp_z="24 : 12 : 1"
       inkscape:persp3d-origin="12 : 8 : 1"
       id="perspective4146-9-1" />
    <inkscape:perspective
       sodipodi:type="inkscape:persp3d"
       inkscape:vp_x="0 : 12 : 1"
       inkscape:vp_y="0 : 1000 : 0"
       inkscape:vp_z="24 : 12 : 1"
       inkscape:persp3d-origin="12 : 8 : 1"
       id="perspective4146-96" />
    <inkscape:perspective
       sodipodi:type="inkscape:persp3d"
       inkscape:vp_x="0 : 12 : 1"
       inkscape:vp_y="0 : 1000 : 0"
       inkscape:vp_z="24 : 12 : 1"
       inkscape:persp3d-origin="12 : 8 : 1"
       id="perspective4146-9-2" />
    <inkscape:perspective
       sodipodi:type="inkscape:persp3d"
       inkscape:vp_x="0 : 12 : 1"
       inkscape:vp_y="0 : 1000 : 0"
       inkscape:vp_z="24 : 12 : 1"
       inkscape:persp3d-origin="12 : 8 : 1"
       id="perspective4146-7" />
    <inkscape:perspective
       id="perspective4146-9-1-9"
       inkscape:persp3d-origin="12 : 8 : 1"
       inkscape:vp_z="24 : 12 : 1"
       inkscape:vp_y="0 : 1000 : 0"
       inkscape:vp_x="0 : 12 : 1"
       sodipodi:type="inkscape:persp3d" />
    <inkscape:perspective
       id="perspective4146-96-7"
       inkscape:persp3d-origin="12 : 8 : 1"
       inkscape:vp_z="24 : 12 : 1"
       inkscape:vp_y="0 : 1000 : 0"
       inkscape:vp_x="0 : 12 : 1"
       sodipodi:type="inkscape:persp3d" />
  </defs>
  <sodipodi:namedview
     id="base"
     pagecolor="#ffffff"
     bordercolor="#666666"
     borderopacity="1.0"
     inkscape:pageopacity="0.0"
     inkscape:pageshadow="2"
     inkscape:zoom="15.999999"
     inkscape:cx="-1.8750029"
     inkscape:cy="11.106368"
     inkscape:document-units="px"
     inkscape:current-layer="layer1"
     showgrid="true"
     fit-margin-top="0"
     fit-margin-left="0"
     fit-margin-right="0"
     fit-margin-bottom="0"
     inkscape:window-width="1366"
     inkscape:window-height="633"
     inkscape:window-x="0"
     inkscape:window-y="33"
     inkscape:window-maximized="1"
     inkscape:showpageshadow="false"
     inkscape:snap-bbox="true"
     inkscape:object-nodes="true">
    <inkscape:grid
       type="xygrid"
       id="grid4132" />
    <sodipodi:guide
       position="4,18"
       orientation="18,0"
       id="guide4138" />
    <sodipodi:guide
       position="5,3"
       orientation="0,18"
       id="guide4140" />
    <sodipodi:guide
       position="20,2.0000174"
       orientation="-18,0"
       id="guide4142" />
    <sodipodi:guide
       position="2,21"
       orientation="0,-18"
       id="guide4144" />
    <sodipodi:guide
       position="3,19.000017"
       orientation="16,0"
       id="guide4146" />
    <sodipodi:guide
       position="2,4"
       orientation="0,16"
       id="guide4148" />
    <sodipodi:guide
       position="21,20"
       orientation="-16,0"
       id="guide4150" />
    <sodipodi:guide
       position="2,20"
       orientation="0,-16"
       id="guide4152" />
  </sodipodi:namedview>
  <metadata
     id="metadata3874">
    <rdf:RDF>
      <cc:Work
         rdf:about="">
        <dc:format>image/svg+xml</dc:format>
        <dc:type
           rdf:resource="http://purl.org/dc/dcmitype/StillImage" />
        <dc:title />
      </cc:Work>
    </rdf:RDF>
  </metadata>
  <g
     inkscape:label="Capa 1"
     inkscape:groupmode="layer"
     id="layer1"
     transform="translate(-326,-534.3622)">
    <g
       id="g4158"
       transform="translate(-1,1)">
      <g
         inkscape:label="Capa 1"
         id="layer1-1"
         transform="translate(327,-497)">
        <g
           id="layer1-0"
           inkscape:label="Capa 1">
          <path
             style="opacity:1;fill:#4d4d4d;fill-opacity:1;stroke:none"
             d="M 11 3 C 6.568 3 3 6.568 3 11 C 3 15.432 6.568 19 11 19 C 15.432 19 19 15.432 19 11 C 19 6.568 15.432 3 11 3 z M 15.345703 8.5 C 15.395172 8.5 15.448565 8.5034828 15.503906 8.5097656 L 15.505859 8.5097656 C 16.256528 8.5732373 16.78776 8.8280672 17.083984 9.2675781 C 17.413238 9.7560787 17.367339 10.352166 17.310547 10.664062 C 17.305428 10.692205 17.282076 10.713754 17.253906 10.71875 C 17.225627 10.723787 17.198076 10.71218 17.183594 10.6875 C 17.124653 10.586934 17.025552 10.434036 16.882812 10.28125 C 16.536531 9.9106313 16.105029 9.7148438 15.636719 9.7148438 C 15.597762 9.7148437 15.557452 9.7160808 15.517578 9.71875 L 15.517578 12.488281 C 15.517578 13.001639 15.132729 13.42319 14.601562 13.490234 C 14.553394 13.496298 14.505145 13.5 14.457031 13.5 C 13.944604 13.5 13.513075 13.152951 13.455078 12.693359 C 13.423828 12.445797 13.501618 12.199572 13.673828 12 C 13.846024 11.800428 14.092426 11.671391 14.367188 11.636719 C 14.524861 11.616803 14.68514 11.630925 14.833984 11.675781 L 14.833984 8.8515625 C 14.833984 8.6893449 14.967255 8.5 15.345703 8.5 z M 11 10 C 11.553999 10 12 10.446001 12 11 C 12 11.553999 11.553999 12 11 12 C 10.446001 12 10 11.553999 10 11 C 10 10.446001 10.446001 10 11 10 z "
             transform="translate(0,1030.3622)"
             id="rect4119" />
        </g>
      </g>
      <g
         style="fill:#ffffff;fill-opacity:1"
         transform="matrix(0.01368809,0,0,0.01368809,339.89972,541.8622)"
         id="g3" />
    </g>
  </g>
</svg>
